X:730
T:Blackbird, The
M:C|
R:SetDance
K:G
dc|(3Bcd Bd cdBc|AGFG AB (3cBA|~d3e dcAF|GBAF D2 DE|\
(3FED FG A2 {fa}fe|d2 {e}d^c dcAF|GBAF D2 D2|D6::de|\
fd {e}(3d^cd fdfg|abag fg(3agf|g2 {a}gf gbag|fgfe d2de|\
fd (3ddd fdfg|~a3g fgaf|gagf d2 d2|defg ~a3g|\
fgaf ~g3e|(3fga e^c dcAG|FGAB defg|a4 A3G|\
FGAB ~C3e|dcAF GBAF|(3DED CE D2:|
